src/icons/System/32/Metro_32.svg

<?xml version="1.0" encoding="UTF-8"?>
<svg viewBox="0 0 40 40" version="1.1" xmlns="http://www.w3.org/2000/svg" xmlns:xlink="http://www.w3.org/1999/xlink">
    <!-- Generator: Sketch 51.2 (57519) - http://www.bohemiancoding.com/sketch -->
    <title>Source/System Icons/32/Metro_32</title>
    <desc>Created with Sketch.</desc>
    <defs>
        <path d="M20,32 C13.372583,32 8,26.627417 8,20 C8,13.372583 13.372583,8 20,8 C26.627417,8 32,13.372583 32,20 C32,26.627417 26.627417,32 20,32 Z M22.5997131,20.655066 L23.6791009,23.6721456 L22.8077475,23.6721456 L22.8077475,25 L28,25 L28,23.6721456 L27.0090866,23.6721456 L23.2790531,14 L20,19.9551903 L16.7209469,14 L12.9911526,23.6721456 L12,23.6721456 L12,25 L17.1924916,25 L17.1924916,23.6721456 L16.3208991,23.6721456 L17.4002869,20.655066 L20,25 L22.5997131,20.655066 Z" id="path-1"></path>
    </defs>
    <g id="Source/System-Icons/32/Metro_32" stroke="none" stroke-width="1" fill="none" fill-rule="evenodd">
        <mask id="mask-2" fill="white">
            <use xlink:href="#path-1"></use>
        </mask>
        <g id="Combined-Shape"></g>
        <g id="Colors/Basic/Fresh-Asphalt" mask="url(#mask-2)" fill="#000000">
            <rect id="Rectangle" x="0" y="0" width="40" height="40"></rect>
        </g>
    </g>
</svg>

<?xml version="1.0" encoding="utf-8"?>
<!-- Generator: Adobe Illustrator 23.0.1, SVG Export Plug-In . SVG Version: 6.00 Build 0)  -->
<svg version="1.1" id="Layer_1" xmlns="http://www.w3.org/2000/svg" xmlns:xlink="http://www.w3.org/1999/xlink" x="0px" y="0px"
	 viewBox="0 0 40 40" style="enable-background:new 0 0 40 40;" xml:space="preserve">
<style type="text/css">
	.st0{filter:url(#Adobe_OpacityMaskFilter);}
	.st1{fill-rule:evenodd;clip-rule:evenodd;fill:#FFFFFF;}
	.st2{mask:url(#mask-2_1_);}
	.st3{fill-rule:evenodd;clip-rule:evenodd;}
</style>
<title>Source/System Icons/32/Metro_32</title>
<desc>Created with Sketch.</desc>
<defs>
	<filter id="Adobe_OpacityMaskFilter" filterUnits="userSpaceOnUse" x="0" y="0" width="40" height="40">
		<feColorMatrix  type="matrix" values="1 0 0 0 0  0 1 0 0 0  0 0 1 0 0  0 0 0 1 0"/>
	</filter>
</defs>
<mask maskUnits="userSpaceOnUse" x="0" y="0" width="40" height="40" id="mask-2_1_">
	<g class="st0">
		<path id="path-1_1_" class="st1" d="M20,32c-6.6,0-12-5.4-12-12S13.4,8,20,8s12,5.4,12,12S26.6,32,20,32z M22.6,20.7l1.1,3h-0.9
			V25H28v-1.3h-1L23.3,14L20,20l-3.3-6L13,23.7h-1V25h5.2v-1.3h-0.9l1.1-3L20,25L22.6,20.7z"/>
	</g>
</mask>
<g class="st2">
	<rect id="Rectangle" y="0" class="st3" width="40" height="40"/>
</g>
</svg>
